!!!COM: Janáček, Leoš [Leo Eugen]
!!!OTL: Taras Bulba, Rhapsody for Large Orchestra
!!!OMV: I: Smrt Andrijova (Death of Andrij)
!!!example: 147
!!!work: Jan-35
**kern	**dynam	**kern	**dynam	**kern	**dynam	**kern	**dynam	**kern	**dynam	**kern	**dynam	**kern	**dynam	**kern	**dynam	**kern	**dynam	**kern	**dynam
*part10	*part10	*part9	*part9	*part8	*part8	*part7	*part7	*part6	*part6	*part5	*part5	*part4	*part4	*part3	*part3	*part2	*part2	*part1	*part1
*staff10	*	*staff9	*	*staff8	*	*staff7	*	*staff6	*	*staff5	*	*staff4	*	*staff3	*	*staff2	*	*staff1	*
*I"Contrabass	*	*I"Violoncello	*	*I"Viola	*	*I"Violin II	*	*I"Violin I	*	*I"Violin	*	*I"Tubular Bells	*	*I"Bassoon	*	*I"Clarinet in Bb	*	*I"Flute	*
*I'Cb.	*	*I'Vc.	*	*I'Vla.	*	*I'Vln. II	*	*I'Vln. I	*	*I'Vln.	*	*I'Tub. B.	*	*I'Bsn.	*	*I'Cl.	*	*I'Fl.	*
*clefF4	*	*clefF4	*	*clefC3	*	*clefG2	*	*clefG2	*	*clefG2	*	*clefG2	*	*clefF4	*	*clefG2	*	*clefG2	*
*k[]	*	*k[]	*	*k[]	*	*k[]	*	*k[]	*	*k[]	*	*k[]	*	*k[]	*	*k[]	*	*k[]	*
*	*	*	*	*	*	*	*	*	*	*	*	*	*	*	*	*	*	*	*
*M9/16	*	*M9/16	*	*M9/16	*	*M9/16	*	*M9/16	*	*M9/16	*	*M9/16	*	*M9/16	*	*M9/16	*	*M9/16	*
=12	=	=	=	=	=	=	=	=	=	=	=	=	=	=	=	=	=	=	=
8.CC#X	ff	8.C#X	ff	16f#XLL 16a#X	ff	8.f#X	ff	16ff#XLL 16aa#X	ff	16%9r	.	16%9r	.	16%9r	.	16%9r	.	16%9r	.
.	.	.	.	16f# 16a#	.	.	.	16ff# 16aa#	.	.	.	.	.	.	.	.	.	.	.
.	.	.	.	16f#JJ 16a#	.	.	.	16ff#JJ 16aa#	.	.	.	.	.	.	.	.	.	.	.
[8.CC#~	.	[8.C#~	.	16f#LL 16a#	.	[8.f#~	.	16ff#LL 16aa#	.	.	.	.	.	.	.	.	.	.	.
.	.	.	.	16f# 16a#	.	.	.	16ff# 16aa#	.	.	.	.	.	.	.	.	.	.	.
.	.	.	.	16f#JJ 16a#	.	.	.	16ff#JJ 16aa#	.	.	.	.	.	.	.	.	.	.	.
8.CC#~]	.	8.C#~]	.	16f#LL 16a#	.	8.f#~]	.	16ff#LL 16aa#	.	.	.	.	.	.	.	.	.	.	.
.	.	.	.	16f# 16a#	.	.	.	16ff# 16aa#	.	.	.	.	.	.	.	.	.	.	.
.	.	.	.	16f#JJ 16a#	.	.	.	16ff#JJ 16aa#	.	.	.	.	.	.	.	.	.	.	.
=13	=13	=13	=13	=13	=13	=13	=13	=13	=13	=13	=13	=13	=13	=13	=13	=13	=13	=13	=13
8.CC#X	p	8.C#X	p	16f#XLL 16a#X	p	8.f#X	p	16ff#XLL 16aa#X	p	64%3r	<	16%9r	.	16%9r	.	16%9r	.	16%9r	.
.	.	.	.	.	.	.	.	.	.	(64%3ddd-XLLL	f	.	.	.	.	.	.	.	.
.	.	.	.	16f# 16a#	.	.	.	16ff# 16aa#	.	.	.	.	.	.	.	.	.	.	.
.	.	.	.	.	.	.	.	.	.	64%3bb-X	.	.	.	.	.	.	.	.	.
.	.	.	.	16f#JJ 16a#	.	.	.	16ff#JJ 16aa#	.	.	.	.	.	.	.	.	.	.	.
.	.	.	.	.	.	.	.	.	.	64%3ccc-XJJJ	.	.	.	.	.	.	.	.	.
[8.CC#~	.	[8.C#~	.	16f#LL 16a#	.	[8.f#~	.	16ff#LL 16aa#	.	8.ddd-	.	.	.	.	.	.	.	.	.
.	.	.	.	16f# 16a#	.	.	.	16ff# 16aa#	.	.	.	.	.	.	.	.	.	.	.
.	.	.	.	16f#JJ 16a#	.	.	.	16ff#JJ 16aa#	.	.	.	.	.	.	.	.	.	.	.
8.CC#~]	.	8.C#~]	.	16f#LL 16a#	.	8.f#~]	.	16ff#LL 16aa#	.	[8.aaa-X	.	.	.	.	.	.	.	.	.
.	.	.	.	16f# 16a#	.	.	.	16ff# 16aa#	.	.	.	.	.	.	.	.	.	.	.
.	.	.	.	16f#JJ 16a#	.	.	.	16ff#JJ 16aa#	.	.	.	.	.	.	.	.	.	.	.
=14	=14	=14	=14	=14	=14	=14	=14	=14	=14	=14	=14	=14	=14	=14	=14	=14	=14	=14	=14
8.CC#X	.	8.C#X	.	16f#XLL 16a#X	.	8.f#X	.	16ff#XLL 16aa#X	.	8.aaa-]	.	16%9r	.	16%9r	.	16%9r	.	16%9r	.
.	.	.	.	16f# 16a#	.	.	.	16ff# 16aa#	.	.	.	.	.	.	.	.	.	.	.
.	.	.	.	16f#JJ 16a#	.	.	.	16ff#JJ 16aa#	.	.	.	.	.	.	.	.	.	.	.
[8.CC#~	.	[8.C#~	.	16f#LL 16a#	.	[8.f#~	.	16ff#LL 16aa#	.	(8.aaa-X	[	.	.	.	.	.	.	.	.
.	.	.	.	16f# 16a#	.	.	.	16ff# 16aa#	.	.	.	.	.	.	.	.	.	.	.
.	.	.	.	16f#JJ 16a#	.	.	.	16ff#JJ 16aa#	.	.	.	.	.	.	.	.	.	.	.
8.CC#~]	.	8.C#~]	.	16f#LL 16a#	.	8.f#~]	.	16ff#LL 16aa#	.	8.ggg-X)	[[	.	.	.	.	.	.	.	.
.	.	.	.	16f# 16a#	.	.	.	16ff# 16aa#	.	.	.	.	.	.	.	.	.	.	.
.	.	.	.	16f#JJ 16a#	.	.	.	[16ff#JJ [16aa#	.	.	.	.	.	.	.	.	.	.	.
=15	=15	=15	=15	=15	=15	=15	=15	=15	=15	=15	=15	=15	=15	=15	=15	=15	=15	=15	=15
!!pagebreak:original
8.CC#X~	<	16r	.	16f#XKL 16a#X	<	(16ff#XLL	<	16ff#KL] 16aa#]	<	(8.ggg-X~	[	16%9r	.	[8.G-X	<	[8.g-X	<	[8.gg-X	<
.	.	(16c#XLL	<	8f#J 8a#	.	16a#X	.	8ff#XJ 8aa#X	.	.	.	.	.	.	.	.	.	.	.
.	.	16A#XJJ	.	.	.	16ff#JJ	.	.	.	.	.	.	.	.	.	.	.	.	.
[8.FFF#X~	.	16A#LL	.	8f#L 8a#	.	16a#LL	.	8ff#L 8aa#	.	8.ggg-~	.	.	.	8.G-]	.	8.g-]	.	8.gg-]	.
.	.	16G#X	.	.	.	16ff#	.	.	.	.	.	.	.	.	.	.	.	.	.
.	.	16F#XJJ	.	8f# 8a#	.	16a#JJ	.	8ff# 8aa#	.	.	.	.	.	.	.	.	.	.	.
8.FFF#]	[[	16F#LL	.	.	.	16ff#LL	.	.	.	8.ggg-~)	[[	.	.	8.A-X	.	8.a-X	.	8.aa-X	.
.	.	16C#X	.	8f#J 8a#	[[	16a#	.	8ff#J 8aa#	[[	.	.	.	.	.	.	.	.	.	.
.	.	[16FF#XJJ	[[	.	.	16ff#JJ)	[[	.	.	.	.	.	.	.	.	.	.	.	.
=16	=16	=16	=16	=16	=16	=16	=16	=16	=16	=16	=16	=16	=16	=16	=16	=16	=16	=16	=16
8.FFF#X~	[	16FF#LL])	[	8.f#X~ 8.a#X	[	(16a#XLL	[	8.ff#X~ 8.aa#X	[	(8.ggg-X	[	16r	.	8.An	.	8.an	.	8.aan	.
.	.	(16BB#X	.	.	.	16ff#X	.	.	.	.	.	8a	f	.	.	.	.	.	.
.	.	[16DnJJ	.	.	.	16a#JJ	.	.	.	.	.	.	.	.	.	.	.	.	.
[8.FFF#~	.	16DLL]	.	[8.f#~ [8.a#	.	16ff#LL	.	[8.ff#~ [8.aa#	.	[8.aaa-X	.	8bnL	.	[8.B-X	.	[8.b-X	.	[8.bb-X	.
.	.	16C#X	.	.	.	16a#	.	.	.	.	.	.	.	.	.	.	.	.	.
.	.	[16FF#XJJ)	.	.	.	16ff#JJ	.	.	.	.	.	[16b-XJk	.	.	.	.	.	.	.
8.FFF#]	.	16FF#LL]	.	8.f#] 8.a#]	.	16a#LL	.	8.ff#] 8.aa#]	.	8.aaa-])	.	8.b-]	.	8.B-]	[[	8.b-]	[[	8.bb-]	[[
.	.	(16BB#	.	.	.	16ff#	.	.	.	.	.	.	.	.	.	.	.	.	.
.	.	[16C#JJ	.	.	.	16a#JJ)	.	.	.	.	.	.	.	.	.	.	.	.	.
=17	=17	=17	=17	=17	=17	=17	=17	=17	=17	=17	=17	=17	=17	=17	=17	=17	=17	=17	=17
8.FFF#X~	<	16C#LL])	<	8.f#X~ 8.a#X	<	(16anLL	<	8.ff#X~ 8.aa#X	<	(8.ggg-X	<	16r	.	8.A	[	8.a	[	8.aa	[
.	.	(16BB#X	.	.	.	16ff#X	.	.	.	.	.	8a	.	.	.	.	.	.	.
.	.	[16DnJJ	.	.	.	16aJJ	.	.	.	.	.	.	.	.	.	.	.	.	.
[8.FFF#~	.	16DLL]	.	[8.f#~ [8.a#	.	16ff#LL	.	[8.ff#~ [8.aa#	.	[8.aaa-X	.	8bnL	.	[8.B-X	.	[8.b-X	.	[8.bb-X	.
.	.	16C#X	.	.	.	16a	.	.	.	.	.	.	.	.	.	.	.	.	.
.	.	[16FF#XJJ	.	.	.	16ff#JJ	.	.	.	.	.	[16b-XJk	.	.	.	.	.	.	.
8.FFF#]	.	16FF#LL]	.	8.f#] 8.a#]	.	16aLL	.	8.ff#] 8.aa#]	.	8.aaa-])	.	8.b-]	.	8.B-]	.	8.b-]	.	8.bb-]	.
.	.	16BB#	.	.	.	16ff#	.	.	.	.	.	.	.	.	.	.	.	.	.
.	.	[16C#JJ	.	.	.	16aJJ)	.	.	.	.	.	.	.	.	.	.	.	.	.
=18	=18	=18	=18	=18	=18	=18	=18	=18	=18	=18	=18	=18	=18	=18	=18	=18	=18	=18	=18
8.FFF#X~	.	16C#LL])	.	8.f#X~ 8.a#X	.	(16anLL	.	8.ff#X~ 8.aa#X	.	(8.ggg-X	.	16r	.	8.A	.	8.a	.	8.aa	.
.	.	(16BB#X)	.	.	.	16ff#X	.	.	.	.	.	8a	.	.	.	.	.	.	.
.	.	[16DnJJ	.	.	.	16aJJ	.	.	.	.	.	.	.	.	.	.	.	.	.
[8.FFF#~	.	16DLL]	.	[8.f#~ [8.a#	.	16ff#LL	.	[8.ff#~ [8.aa#	.	[8.aaa-X	.	8bnL	.	[8.B-X	.	[8.b-X	.	[8.bb-X	.
.	.	16C#X	.	.	.	16a	.	.	.	.	.	.	.	.	.	.	.	.	.
.	.	[16FF#XJJ	.	.	.	16ff#JJ	.	.	.	.	.	[16b-XJk	.	.	.	.	.	.	.
8.FFF#]	[[	16FF#LL]	.	8.f#] 8.a#]	[[	16aLL	.	8.ff#] 8.aa#]	[[	8.aaa-])	[[	8.b-]	.	8.B-]	[[	8.b-]	[[	8.bb-]	[[
.	.	16BB#	.	.	.	16ff#	.	.	.	.	.	.	.	.	.	.	.	.	.
.	.	[16C#JJ	[[	.	.	16aJJ)	[[	.	.	.	.	.	.	.	.	.	.	.	.
==	==	==	==	==	==	==	==	==	==	==	==	==	==	==	==	==	==	==	==
*-	*-	*-	*-	*-	*-	*-	*-	*-	*-	*-	*-	*-	*-	*-	*-	*-	*-	*-	*-
!!!CDT: 1854/07/03-1928/08/12
!!!CBL: Hukvaldy, Moravia
!!!CDL: Moravaská Ostrava, Czech Republic
!!!CNT: Czech
!!!AGN: Orchestral; Programmatic
!!!MCN: Neumann, František
!!!MDT: 1921/10/09
!!!MGN: Brno National Theatre Orchestra
!!!MLC: Brno, Czechia
!!!MPD: 1921
!!!MPN:
!!!ODT: 1918
!!!PDT: 1927
!!!excerpt-start-measure: 12
!!!excerpt-end-measure: 18
!!!excerpt-start-time: 0:46
!!!excerpt-end-time: 1:07
!!!EEV: 2020/01/17
!!!system-decoration: [(s1,s2,s3)]s4[(s5,s6,s7,s8,s9,s10)]
!!!ONB: Converted from MusicXML on 2020/01/17
